src/images/svg/symbols/boom-indices-1000-new.svg

<svg width="32" height="32" viewBox="0 0 32 32" fill="none" xmlns="http://www.w3.org/2000/svg">
<path d="M0 2C0 0.89543 0.895431 0 2 0H22C23.1046 0 24 0.895431 24 2V8C24 9.10457 23.1046 10 22 10H2C0.89543 10 0 9.10457 0 8V2Z" fill="#0E0E0E"/>
<path d="M3.15755 8.00031V7.03231H4.66155V3.28831H4.58955L3.45355 4.77631L2.68555 4.17631L4.02155 2.41631H5.86155V7.03231H7.04555V8.00031H3.15755Z" fill="white"/>
<path d="M9.60242 8.09631C8.87176 8.09631 8.33042 7.84298 7.97842 7.33631C7.62642 6.82965 7.45042 6.12031 7.45042 5.20831C7.45042 4.29631 7.62642 3.58698 7.97842 3.08031C8.33042 2.57365 8.87176 2.32031 9.60242 2.32031C10.3331 2.32031 10.8744 2.57365 11.2264 3.08031C11.5784 3.58698 11.7544 4.29631 11.7544 5.20831C11.7544 6.12031 11.5784 6.82965 11.2264 7.33631C10.8744 7.84298 10.3331 8.09631 9.60242 8.09631ZM9.60242 7.08031C9.92242 7.08031 10.1438 6.96298 10.2664 6.72831C10.3891 6.49365 10.4504 6.16298 10.4504 5.73631V4.68031C10.4504 4.25365 10.3891 3.92298 10.2664 3.68831C10.1438 3.45365 9.92242 3.33631 9.60242 3.33631C9.28242 3.33631 9.06109 3.45365 8.93842 3.68831C8.81576 3.92298 8.75442 4.25365 8.75442 4.68031V5.73631C8.75442 6.16298 8.81576 6.49365 8.93842 6.72831C9.06109 6.96298 9.28242 7.08031 9.60242 7.08031Z" fill="white"/>
<path d="M14.3993 8.09631C13.6686 8.09631 13.1273 7.84298 12.7753 7.33631C12.4233 6.82965 12.2473 6.12031 12.2473 5.20831C12.2473 4.29631 12.4233 3.58698 12.7753 3.08031C13.1273 2.57365 13.6686 2.32031 14.3993 2.32031C15.13 2.32031 15.6713 2.57365 16.0233 3.08031C16.3753 3.58698 16.5513 4.29631 16.5513 5.20831C16.5513 6.12031 16.3753 6.82965 16.0233 7.33631C15.6713 7.84298 15.13 8.09631 14.3993 8.09631ZM14.3993 7.08031C14.7193 7.08031 14.9406 6.96298 15.0633 6.72831C15.186 6.49365 15.2473 6.16298 15.2473 5.73631V4.68031C15.2473 4.25365 15.186 3.92298 15.0633 3.68831C14.9406 3.45365 14.7193 3.33631 14.3993 3.33631C14.0793 3.33631 13.858 3.45365 13.7353 3.68831C13.6126 3.92298 13.5513 4.25365 13.5513 4.68031V5.73631C13.5513 6.16298 13.6126 6.49365 13.7353 6.72831C13.858 6.96298 14.0793 7.08031 14.3993 7.08031Z" fill="white"/>
<path d="M19.1962 8.09631C18.4655 8.09631 17.9242 7.84298 17.5722 7.33631C17.2202 6.82965 17.0442 6.12031 17.0442 5.20831C17.0442 4.29631 17.2202 3.58698 17.5722 3.08031C17.9242 2.57365 18.4655 2.32031 19.1962 2.32031C19.9268 2.32031 20.4682 2.57365 20.8202 3.08031C21.1722 3.58698 21.3482 4.29631 21.3482 5.20831C21.3482 6.12031 21.1722 6.82965 20.8202 7.33631C20.4682 7.84298 19.9268 8.09631 19.1962 8.09631ZM19.1962 7.08031C19.5162 7.08031 19.7375 6.96298 19.8602 6.72831C19.9828 6.49365 20.0442 6.16298 20.0442 5.73631V4.68031C20.0442 4.25365 19.9828 3.92298 19.8602 3.68831C19.7375 3.45365 19.5162 3.33631 19.1962 3.33631C18.8762 3.33631 18.6548 3.45365 18.5322 3.68831C18.4095 3.92298 18.3482 4.25365 18.3482 4.68031V5.73631C18.3482 6.16298 18.4095 6.49365 18.5322 6.72831C18.6548 6.96298 18.8762 7.08031 19.1962 7.08031Z" fill="white"/>
<path d="M0 17.4144L6.99995 24.4143L9.99995 21.4143L17 28.4143L20 25.4143L26 31.4143V28.5859L20 22.5859L17 25.5859L9.99995 18.5859L6.99995 21.5859L0 14.5859V17.4144Z" fill="#FF444F"/>
<path d="M27.0001 10L31.7072 14.7071L30.293 16.1213L28.0001 13.8284L28.0001 32H26.5858L26.0001 31.4142L26.0001 13.8284L23.7072 16.1213L22.293 14.7071L27.0001 10Z" fill="#85ACB0"/>
</svg>

<svg width="32" height="32" fill="none" xmlns="http://www.w3.org/2000/svg"><path d="M0 2a2 2 0 0 1 2-2h20a2 2 0 0 1 2 2v6a2 2 0 0 1-2 2H2a2 2 0 0 1-2-2V2Z" fill="#0E0E0E"/><path d="M3.158 8v-.968h1.504V3.288H4.59L3.454 4.776l-.768-.6 1.336-1.76h1.84v4.616h1.184V8H3.158ZM9.602 8.096c-.73 0-1.272-.253-1.624-.76-.352-.506-.528-1.216-.528-2.128 0-.912.176-1.621.528-2.128.352-.506.894-.76 1.624-.76.731 0 1.272.254 1.624.76.352.507.528 1.216.528 2.128 0 .912-.176 1.622-.528 2.128-.352.507-.893.76-1.624.76Zm0-1.016c.32 0 .542-.117.664-.352.123-.234.184-.565.184-.992V4.68c0-.426-.06-.757-.184-.992-.122-.234-.344-.352-.664-.352-.32 0-.54.118-.664.352-.122.235-.184.566-.184.992v1.056c0 .427.062.758.184.992.123.235.344.352.664.352ZM14.4 8.096c-.731 0-1.273-.253-1.625-.76-.352-.506-.528-1.216-.528-2.128 0-.912.176-1.621.528-2.128.352-.506.894-.76 1.624-.76.731 0 1.272.254 1.624.76.352.507.528 1.216.528 2.128 0 .912-.176 1.622-.528 2.128-.352.507-.893.76-1.624.76Zm0-1.016c.32 0 .54-.117.663-.352.123-.234.184-.565.184-.992V4.68c0-.426-.061-.757-.184-.992-.122-.234-.344-.352-.664-.352-.32 0-.541.118-.664.352-.122.235-.184.566-.184.992v1.056c0 .427.062.758.184.992.123.235.344.352.664.352ZM19.196 8.096c-.73 0-1.272-.253-1.624-.76-.352-.506-.528-1.216-.528-2.128 0-.912.176-1.621.528-2.128.352-.506.893-.76 1.624-.76.73 0 1.272.254 1.624.76.352.507.528 1.216.528 2.128 0 .912-.176 1.622-.528 2.128-.352.507-.893.76-1.624.76Zm0-1.016c.32 0 .541-.117.664-.352.123-.234.184-.565.184-.992V4.68c0-.426-.061-.757-.184-.992-.122-.234-.344-.352-.664-.352-.32 0-.541.118-.664.352-.122.235-.184.566-.184.992v1.056c0 .427.062.758.184.992.123.235.344.352.664.352Z" fill="#fff"/><path d="m0 17.414 7 7 3-3 7 7 3-3 6 6v-2.828l-6-6-3 3-7-7-3 3-7-7v2.828Z" fill="#FF444F"/><path d="m27 10 4.707 4.707-1.414 1.414L28 13.828V32h-1.414L26 31.414V13.828l-2.293 2.293-1.414-1.414L27 10Z" fill="#85ACB0"/></svg>
